public/pieces/kosal/bR.svg

<svg viewBox="0 0 81 81" xmlns="http://www.w3.org/2000/svg"><path d="m0 0h81v81h-81z" fill="none"/><path d="m56.9 31.1h-32.8l-4.9 40.9h42.6z" fill="#010101"/><path d="m14.2 58.5h52.5v13.5h-52.5z" fill="#010101"/><path d="m41.1 34.1c-.1 7.2-6.6 24.4-14.2 24.4h-2.3l3.8-24.4zm-22.7 28.2h17.9v6.1h-17.9z" fill="#6d6e6e"/><path d="m53.4 12v6.9h-6.9v-6.9h-12v6.9h-6.9v-6.9h-12v11.4l9 9.1h31.8l9-9.1v-11.4z" fill="#010101"/><path d="m62.4 15h-6v7.2zm-18.9 0h-6v7.2zm-18.9 0h-6v7.2z" fill="#6d6e6e"/></svg>

<svg xmlns="http://www.w3.org/2000/svg" viewBox="0 0 81 81"><style>.st0{fill:none}.st1{fill:#010101}.st2{fill:#6d6e6e}</style><path class="st0" d="M0 0h81v81H0z"/><path class="st1" d="M56.9 31.1H24.1L19.2 72h42.6z"/><path class="st1" d="M14.2 58.5h52.5V72H14.2z"/><path class="st2" d="M41.1 34.1c-.1 7.2-6.6 24.4-14.2 24.4h-2.3l3.8-24.4h12.7zM18.4 62.3h17.9v6.1H18.4z"/><path class="st1" d="M53.4 12v6.9h-6.9V12h-12v6.9h-6.9V12h-12v11.4l9 9.1h31.8l9-9.1V12z"/><path class="st2" d="M62.4 15h-6v7.2zM43.5 15h-6v7.2zM24.6 15h-6v7.2z"/></svg>
